svg/u1f684.svg

<svg viewBox="0 0 128 128" xmlns="http://www.w3.org/2000/svg">
  <g>
    <rect height="16.21" fill="#455A64" width="63.2" x="60.77" y="100.94"/>
    <g>
      <ellipse cx="93.63" cy="110.84" rx="13.12" ry="13.16" fill="#455A64"/>
      <ellipse cx="93.63" cy="110.84" rx="8.76" ry="8.78" fill="#607D8B"/>
      <path d="M90.51,110.84c0,1.73,1.4,3.13,3.12,3.13s3.12-1.4,3.12-3.13H90.51z" fill="#455A64"/>
    </g>
    <path d="M20.07,97.68l-10.01,16.51c-1.51,2.34,0.5,2.96,1.83,2.96h54.08c0.98,0,1.77-0.6,2.61-1.25 c3.62-2.78,5.38-5.06,13.91-5.06c5.3,0,27.28,0,41.5,0V97.68L20.07,97.68z" fill="#0277BD"/>
    <path d="M20.07,97.68l-6.89,11.36c0,0,5.2-3.92,19.56-3.92c14.17,0,62.69,0,91.27,0v-7.44L20.07,97.68z" fill="#004F84"/>
    <path d="M105.67,8.94L30.41,54.95C17.47,65.9,10.51,75.7,7.3,79.86c-6.06,7.85,0.31,14.37,1.52,15.28 c1.21,0.91,9.55,6.4,23.91,6.4c14.17,0,62.69,0,91.27,0V4C118.72,5.12,112.57,6.7,105.67,8.94z" fill="#E0E0E0"/>
    <path d="M30.41,54.95l10.56-10.8c1.11-1.23,3.8-1.66,3.8-1.66l0,0l56.47-32.07l4.7-1.58 c-1.61,8.53-9.44,20.55-33.44,32.27C52.25,51.01,30.41,54.95,30.41,54.95z" fill="#37474F"/>
    <path d="M44.78,42.49c0,0,13.13-11.18,23.16-17.42c17.83-11.1,33.31-14.64,33.31-14.64 c-2.51,8.25-8.12,15.65-30.68,25.78C51.2,44.9,44.78,42.49,44.78,42.49z" fill="#BAE2FD"/>
    <ellipse cx="27.33" cy="67.82" rx="8.04" ry="4.02" fill="#E2A610" transform="matrix(0.708 -0.7062 0.7062 0.708 -39.915 39.1054)"/>
    <path d="M33.34,62.54c-0.01-0.03-0.03-0.04-0.05-0.07c-1.64,0-3.84,0.98-5.91,2.81 c-3.32,2.91-5.07,6.86-3.92,8.82c0.01,0.03,0.03,0.04,0.05,0.07c1.64,0,3.84-0.98,5.91-2.81C32.74,68.45,34.49,64.5,33.34,62.54z" fill="#FFCA28"/>
    <path d="M94.02,68.83c-33.76,0-60.98,12.03-73.25,16.35C12.77,88,7.46,87.15,4.72,86.21 c-0.31,4.88,1.73,7.25,4,9.16c2.46,2.07,9.65,6.17,24.01,6.17c14.17,0,62.69,0,91.27,0V68.83 C113.99,68.83,102.81,68.83,94.02,68.83z" fill="#0277BD"/>
    <path d="M94.02,68.83c-33.76,0-60.98,12.03-73.25,16.35C12.77,88,7.46,87.15,4.72,86.21 c-0.15,2.4,0.27,4.19,1,5.62c2.92,0.69,10.11,1.34,17.38-0.68c19.17-5.34,35.88-11.91,69.64-11.91c8.18,0,20.11,0,31.27,0V68.83 C113.99,68.83,102.81,68.83,94.02,68.83z" fill="#82AEC0"/>
  </g>
</svg>

<svg viewBox="0 0 128 128" xmlns="http://www.w3.org/2000/svg">
  <defs/>
  <path d="M60.77,100.94 L123.97,100.94 L123.97,117.15 L60.77,117.15 L60.77,100.94 Z" fill="#455A64"/>
  <path d="M106.75,110.84 A13.12 13.16 0 1 1 80.51,110.84 A13.12 13.16 0 1 1 106.75,110.84 Z" fill="#455A64"/>
  <path d="M102.39,110.84 A8.76 8.78 0 1 1 84.87,110.84 A8.76 8.78 0 1 1 102.39,110.84 Z" fill="#607D8B"/>
  <path d="M90.51,110.84 C90.51,112.57 91.91,113.97 93.63,113.97 C95.35,113.97 96.75,112.57 96.75,110.84 L90.51,110.84 Z" fill="#455A64"/>
  <path d="M20.07,97.68 L10.06,114.19 C8.55,116.53 10.56,117.15 11.89,117.15 L65.97,117.15 C66.95,117.15 67.74,116.55 68.58,115.9 C72.2,113.12 73.96,110.84 82.49,110.84 C87.79,110.84 109.77,110.84 123.99,110.84 L123.99,97.68 L20.07,97.68 Z" fill="#0277BD"/>
  <path d="M20.07,97.68 L13.18,109.04 C13.18,109.04 18.38,105.12 32.74,105.12 C46.91,105.12 95.43,105.12 124.01,105.12 L124.01,97.68 L20.07,97.68 Z" fill="#004F84"/>
  <path d="M105.67,8.94 L30.41,54.95 C17.47,65.9 10.51,75.7 7.3,79.86 C1.24,87.71 7.61,94.23 8.82,95.14 C10.03,96.05 18.37,101.54 32.73,101.54 C46.9,101.54 95.42,101.54 124,101.54 L124,4 C118.72,5.12 112.57,6.7 105.67,8.94 Z" fill="#E0E0E0"/>
  <path d="M30.41,54.95 L40.97,44.15 C42.08,42.92 44.77,42.49 44.77,42.49 L44.77,42.49 L101.24,10.42 L105.94,8.84 C104.33,17.37 96.5,29.39 72.5,41.11 C52.25,51.01 30.41,54.95 30.41,54.95 Z" fill="#37474F"/>
  <path d="M44.78,42.49 C44.78,42.49 57.91,31.31 67.94,25.07 C85.77,13.97 101.25,10.43 101.25,10.43 C98.74,18.68 93.13,26.08 70.57,36.21 C51.2,44.9 44.78,42.49 44.78,42.49 Z" fill="#BAE2FD"/>
  <path d="M33.021,62.144 C34.589,63.716 33.312,67.532 30.168,70.668 C27.024,73.803 23.205,75.071 21.637,73.499 C20.069,71.927 21.346,68.111 24.49,64.975 C27.634,61.84 31.454,60.572 33.021,62.144 Z" fill="#E2A610"/>
  <path d="M33.34,62.54 C33.33,62.51 33.31,62.5 33.29,62.47 C31.65,62.47 29.45,63.45 27.38,65.28 C24.06,68.19 22.31,72.14 23.46,74.1 C23.47,74.13 23.49,74.14 23.51,74.17 C25.15,74.17 27.35,73.19 29.42,71.36 C32.74,68.45 34.49,64.5 33.34,62.54 Z" fill="#FFCA28"/>
  <path d="M94.02,68.83 C60.26,68.83 33.04,80.86 20.77,85.18 C12.77,88 7.46,87.15 4.72,86.21 C4.41,91.09 6.45,93.46 8.72,95.37 C11.18,97.44 18.37,101.54 32.73,101.54 C46.9,101.54 95.42,101.54 124,101.54 L124,68.83 C113.99,68.83 102.81,68.83 94.02,68.83 Z" fill="#0277BD"/>
  <path d="M94.02,68.83 C60.26,68.83 33.04,80.86 20.77,85.18 C12.77,88 7.46,87.15 4.72,86.21 C4.57,88.61 4.99,90.4 5.72,91.83 C8.64,92.52 15.83,93.17 23.1,91.15 C42.27,85.81 58.98,79.24 92.74,79.24 C100.92,79.24 112.85,79.24 124.01,79.24 L124.01,68.83 C113.99,68.83 102.81,68.83 94.02,68.83 Z" fill="#82AEC0"/>
</svg>
